src/assets/images/ranks/team_platinum_1.svg

<svg height="240" viewBox="0 0 160 240" width="160" xmlns="http://www.w3.org/2000/svg"><g fill="none" fill-rule="evenodd"><g transform="translate(26 43)"><g fill="#396989"><path d="m25 120h58v55.440402l-29-17.680228-29 17.680228z"/><path d="m3 11.2148438c12-7.47656255 28.8333333-11.2148438 50.5-11.2148438s38.5 3.73828125 50.5 11.2148438l-10 43h-81z"/><path d="m0 37.5c13.3289037-11.6666667 31.3289037-17.5 54-17.5s40.6710963 5.8333333 54 17.5c-1.622646 36.1488106-1.622646 64.482144 0 85-12.8002544 16.78317-39.2525183 30.119909-55.0182857 30.119909-15.7657675 0-40.8610985-13.783951-52.9817143-30.119909 1.84841053-20.815998 1.84841053-49.1493311 0-85z"/></g><path d="m7 41.8347266c11.4567096-10.5564844 26.9284078-15.8347266 46.4150943-15.8347266 19.4866866 0 34.9583847 5.2782422 46.4150944 15.8347266-1.394727 32.7089448-1.394727 58.3461214 0 76.9115294-11.0023151 15.186109-33.7390618 27.253744-47.2903504 27.253744s-35.1216989-12.472291-45.5398383-27.253744c1.58878054-18.8351792 1.58878054-44.4723556 0-76.9115294z" fill="#000" opacity=".446382"/><path d="m54 17 .0004812 3.0924158c1.0540967 3.2510117 1.9002219 5.835348 2.5383757 7.7530088l.1850373.5547904.0878482.2624235c.8341496 2.4885176 1.37401 4.0020591 1.6195813 4.5406243 1.2063126 1.0096216 2.1416015 1.955799 2.8058667 2.8385323.6642651.8827334 1.3795271 2.1299515 2.1457859 3.7416545 5.1279362 5.6002038 8.9999351 9.8784319 11.6159967 12.8346841 2.6160615 2.9562523 4.9524192 5.693711 7.0090731 8.212376l3.2892987 7.3559524c.2850847 2.3734571.4691901 3.9703366.5523162 4.7906386.0831261.8203021-.2397309 1.3540448-.9685712 1.6012283l1.3667616 2.1718073c-.2106982 4.2992802-.1831529 7.6269546.082636 9.9830232.265789 2.3560686.5386801 4.5007603.8186733 6.4340752l-.7619683 1.7774374c-.0505112 1.8970168.1169987 3.5770054.5025296 5.0399655.9575531.1782984 1.7507309 2.1437964 2.3795335 5.8964954l-1.3022268 2.726736c.0584219 3.516647.2640633 5.991687.6169242 7.42512.2041969.829513 1.0143993-.306309 1.5216561.656147.246203.467139.5443333 1.880348.894391 4.239629-2.9899282 3.547634-5.486049 5.805137-7.4883623 6.772508-2.0023133.967372-4.1983164 1.18122-6.5880095.641546l1.7287583-29.2528327c-.712289 3.0013067-1.3799553 5.3372887-2.0029989 7.0079437s-1.138557 2.507302-1.5465402 2.509939l-4.924959 14.216514c-4.0390641 3.327046-7.1436992 5.507012-9.3139054 6.539896-1.9306035.918849-4.2182147 1.451786-6.8628336 1.598812l-.0011494.036909-.5-.015-.5.015-.0001558-.036854c-2.6450395-.146948-4.9329819-.679903-6.8638272-1.598867-2.1702062-1.032884-5.2748413-3.21285-9.3139054-6.539896l-4.924959-14.216514c-.4079832-.002637-.9234966-.839284-1.5465402-2.509939s-1.2907099-4.006637-2.0029989-7.0079437l1.7287583 29.2528327c-2.3896931.539674-4.5856962.325826-6.5880095-.641546-2.0023133-.967371-4.4984341-3.224874-7.4883623-6.772508.3500577-2.359281.648188-3.77249.894391-4.239629.5072568-.962456 1.3174592.173366 1.5216561-.656147.3528609-1.433433.5585023-3.908473.6169242-7.42512l-1.3022268-2.726736c.6288026-3.752699 1.4219804-5.718197 2.3795335-5.8964954.3855309-1.4629601.5530408-3.1429487.5025296-5.0399655l-.7619683-1.7774374c.2799932-1.9333149.5528843-4.0780066.8186733-6.4340752.2657889-2.3560686.2933342-5.683743.082636-9.9830232l1.3667616-2.1718073c-.7288403-.2471835-1.0516973-.7809262-.9685712-1.6012283.0831261-.820302.2672315-2.4171815.5523162-4.7906386l3.2892987-7.3559524c2.0566539-2.518665 4.3930116-5.2561237 7.0090731-8.212376 2.6160616-2.9562522 6.4880605-7.2344803 11.6159967-12.8346841.7662588-1.611703 1.4815208-2.8589211 2.1457859-3.7416545.6642652-.8827333 1.5995541-1.8289107 2.8058667-2.8385323.2455713-.5385652.7854317-2.0521067 1.6195813-4.5406243l.0878482-.2624235.1850373-.5547904c.6383488-1.9182468 1.4847962-4.5035767 2.5393422-7.7559895l-.0004853-3.0894351c.1712268.5302853.3380624 1.0464941.5005068 1.5486263.1614308-.5021322.3282664-1.018341.4994932-1.5486263zm-5.0828086 94.758439c-1.1042652.147295-2.5116726.513001-4.222222 1.097118-.0440816.696718-.0260795 1.21235.0540063 1.546896.0800857.334546.2676089.677463.5625696 1.028753.4162608.385451.8584346.625751 1.3265213.720898s1.2393515.101502 2.3137944.019064l4.048139-.022168.499-.002.501-.002267v-4.530349c-.1701279-.003818-.3369831-.007084-.5005655-.009801l-.0780473.001354-.4213872.008447-.0015278-.016501c-1.7845757-.01785-3.1450027.035669-4.0812808.160556zm9.1656172 0c-.936103-.124864-2.296196-.178386-4.0802792-.160566l-.0025294 4.551127 4.048139.022168c.9767663.074943 1.7029721.076505 2.1786176.004684l.1351768-.023748c.4680867-.095147.9102605-.335447 1.3265213-.720898.2949607-.35129.4824839-.694207.5625696-1.028753.0800858-.334546.0980879-.850178.0540063-1.546896-1.7105494-.584117-3.1179568-.949823-4.222222-1.097118zm-15.9888788-26.6067359c-.9695632 0-2.2528981.0293669-3.850005.0881009-1.2790344.4067284-2.156107.7797497-2.6312178 1.119064s-.927936.9160785-1.3584756 1.7302926c.6705055.9946778 1.2114266 1.6681399 1.6227634 2.0203865s.9999638.6460684 1.7658811.8814655c.9222473.4098756 1.7920802.6494523 2.6094987.7187299.8174184.0692777 2.035596.0066637 3.6545326-.1878421 1.8391166-.5242109 3.0820616-1.0135589 3.728835-1.468044s1.2657311-1.2734888 1.856873-2.4570109c-.2394297-.4969159-.5131672-.8832513-.8212125-1.1590062s-.9119901-.6751-1.8118343-1.1980353c-2.2075293-.058734-3.7960755-.0881009-4.7656386-.0881009zm22.8121404 0c-.9695631 0-2.5581093.0293669-4.7656386.0881009-.8998442.5229353-1.503789.9222804-1.8118343 1.1980353s-.5817828.6620903-.8212125 1.1590062c.5911419 1.1835221 1.2100996 2.0025258 1.856873 2.4570109s1.8897184.9438331 3.728835 1.468044c1.6189366.1945058 2.8371142.2571198 3.6545326.1878421.8174185-.0692776 1.6872514-.3088543 2.6094987-.7187299.7659173-.2353971 1.3545443-.5292189 1.7658811-.8814655s.9522579-1.0257087 1.6227634-2.0203865c-.4305396-.8142141-.8833648-1.3909783-1.3584756-1.7302926s-1.3521834-.7123356-2.6312178-1.119064c-1.5971069-.058734-2.8804418-.0881009-3.850005-.0881009z" fill="#e8f7fa"/></g><path d="m15 0 15 21-15 21-15-21z" fill="#e8f7fa" transform="translate(65 8)"/></g></svg>

<?xml version="1.0" encoding="UTF-8"?>
<svg width="160px" height="240px" viewBox="0 0 160 240" version="1.1" xmlns="http://www.w3.org/2000/svg" xmlns:xlink="http://www.w3.org/1999/xlink">
    <title>team_platinum_1</title>
    <g id="team_platinum_1" stroke="none" stroke-width="1" fill="none" fill-rule="evenodd">
        <g id="Group-15" transform="translate(26.000000, 43.000000)">
            <polygon id="Rectangle-Copy-70" fill="#396989" points="25 120 83 120 83 175.440402 54 157.760174 25 175.440402"></polygon>
            <path d="M3,11.2148438 C15,3.73828125 31.8333333,0 53.5,0 C75.1666667,0 92,3.73828125 104,11.2148438 L94,54.2148438 L13,54.2148438 L3,11.2148438 Z" id="Rectangle-Copy-76" fill="#396989"></path>
            <path d="M0,37.5 C13.3289037,25.8333333 31.3289037,20 54,20 C76.6710963,20 94.6710963,25.8333333 108,37.5 C106.377354,73.6488106 106.377354,101.982144 108,122.5 C95.1997456,139.28317 68.7474817,152.619909 52.9817143,152.619909 C37.2159468,152.619909 12.1206158,138.835958 0,122.5 C1.84841053,101.684002 1.84841053,73.3506689 0,37.5 Z" id="Rectangle-Copy-81" fill="#396989"></path>
            <path d="M7,41.8347266 C18.4567096,31.2782422 33.9284078,26 53.4150943,26 C72.9017809,26 88.373479,31.2782422 99.8301887,41.8347266 C98.4354617,74.5436714 98.4354617,100.180848 99.8301887,118.746256 C88.8278736,133.932365 66.0911269,146 52.5398383,146 C38.9885497,146 17.4181394,133.527709 7,118.746256 C8.58878054,99.9110768 8.58878054,74.2739004 7,41.8347266 Z" id="Rectangle-Copy-82" fill="#000000" opacity="0.446382068"></path>
            <path d="M54,17 L54.0004812,20.0924158 C55.0545779,23.3434275 55.9007031,25.9277638 56.5388569,27.8454246 L56.7238942,28.400215 L56.8117424,28.6626385 C57.645892,31.1511561 58.1857524,32.6646976 58.4313237,33.2032628 C59.6376363,34.2128844 60.5729252,35.1590618 61.2371904,36.0417951 C61.9014555,36.9245285 62.6167175,38.1717466 63.3829763,39.7834496 C68.5109125,45.3836534 72.3829114,49.6618815 74.998973,52.6181337 C77.6150345,55.574386 79.9513922,58.3118447 82.0080461,60.8305097 L85.2973448,68.1864621 C85.5824295,70.5599192 85.7665349,72.1567987 85.849661,72.9771007 C85.9327871,73.7974028 85.6099301,74.3311455 84.8810898,74.578329 L86.2478514,76.7501363 C86.0371532,81.0494165 86.0646985,84.3770909 86.3304874,86.7331595 C86.5962764,89.0892281 86.8691675,91.2339198 87.1491607,93.1672347 L86.3871924,94.9446721 C86.3366812,96.8416889 86.5041911,98.5216775 86.889722,99.9846376 C87.8472751,100.162936 88.6404529,102.128434 89.2692555,105.881133 L87.9670287,108.607869 C88.0254506,112.124516 88.231092,114.599556 88.5839529,116.032989 C88.7881498,116.862502 89.5983522,115.72668 90.105609,116.689136 C90.351812,117.156275 90.6499423,118.569484 91,120.928765 C88.0100718,124.476399 85.513951,126.733902 83.5116377,127.701273 C81.5093244,128.668645 79.3133213,128.882493 76.9236282,128.342819 L78.6523865,99.0899863 C77.9400975,102.091293 77.2724312,104.427275 76.6493876,106.09793 C76.026344,107.768585 75.5108306,108.605232 75.1028474,108.607869 L70.1778884,122.824383 C66.1388243,126.151429 63.0341892,128.331395 60.863983,129.364279 C58.9333795,130.283128 56.6457683,130.816065 54.0011494,130.963091 L54,131 L53.5,130.985 L53,131 L52.9998442,130.963146 C50.3548047,130.816198 48.0668623,130.283243 46.136017,129.364279 C43.9658108,128.331395 40.8611757,126.151429 36.8221116,122.824383 L31.8971526,108.607869 C31.4891694,108.605232 30.973656,107.768585 30.3506124,106.09793 C29.7275688,104.427275 29.0599025,102.091293 28.3476135,99.0899863 L30.0763718,128.342819 C27.6866787,128.882493 25.4906756,128.668645 23.4883623,127.701273 C21.486049,126.733902 18.9899282,124.476399 16,120.928765 C16.3500577,118.569484 16.648188,117.156275 16.894391,116.689136 C17.4016478,115.72668 18.2118502,116.862502 18.4160471,116.032989 C18.768908,114.599556 18.9745494,112.124516 19.0329713,108.607869 L17.7307445,105.881133 C18.3595471,102.128434 19.1527249,100.162936 20.110278,99.9846376 C20.4958089,98.5216775 20.6633188,96.8416889 20.6128076,94.9446721 L19.8508393,93.1672347 C20.1308325,91.2339198 20.4037236,89.0892281 20.6695126,86.7331595 C20.9353015,84.3770909 20.9628468,81.0494165 20.7521486,76.7501363 L22.1189102,74.578329 C21.3900699,74.3311455 21.0672129,73.7974028 21.150339,72.9771007 C21.2334651,72.1567987 21.4175705,70.5599192 21.7026552,68.1864621 L24.9919539,60.8305097 C27.0486078,58.3118447 29.3849655,55.574386 32.001027,52.6181337 C34.6170886,49.6618815 38.4890875,45.3836534 43.6170237,39.7834496 C44.3832825,38.1717466 45.0985445,36.9245285 45.7628096,36.0417951 C46.4270748,35.1590618 47.3623637,34.2128844 48.5686763,33.2032628 C48.8142476,32.6646976 49.354108,31.1511561 50.1882576,28.6626385 L50.2761058,28.400215 L50.4611431,27.8454246 C51.0994919,25.9271778 51.9459393,23.3418479 53.0004853,20.0894351 L53,17 C53.1712268,17.5302853 53.3380624,18.0464941 53.5005068,18.5486263 C53.6619376,18.0464941 53.8287732,17.5302853 54,17 Z M48.9171914,111.758439 C47.8129262,111.905734 46.4055188,112.27144 44.6949694,112.855557 C44.6508878,113.552275 44.6688899,114.067907 44.7489757,114.402453 C44.8290614,114.736999 45.0165846,115.079916 45.3115453,115.431206 C45.7278061,115.816657 46.1699799,116.056957 46.6380666,116.152104 C47.1061533,116.247251 47.8774181,116.253606 48.951861,116.171168 L53,116.149 L53.499,116.147 L54,116.144733 L54,111.614384 C53.8298721,111.610566 53.6630169,111.6073 53.4994345,111.604583 L53.4213872,111.605937 L53,111.614384 L52.9984722,111.597883 C51.2138965,111.580033 49.8534695,111.633552 48.9171914,111.758439 Z M58.0828086,111.758439 C57.1467056,111.633575 55.7866126,111.580053 54.0025294,111.597873 L54,116.149 L58.048139,116.171168 C59.0249053,116.246111 59.7511111,116.247673 60.2267566,116.175852 L60.3619334,116.152104 C60.8300201,116.056957 61.2721939,115.816657 61.6884547,115.431206 C61.9834154,115.079916 62.1709386,114.736999 62.2510243,114.402453 C62.3311101,114.067907 62.3491122,113.552275 62.3050306,112.855557 C60.5944812,112.27144 59.1870738,111.905734 58.0828086,111.758439 Z M42.0939298,85.1517031 C41.1243666,85.1517031 39.8410317,85.18107 38.2439248,85.239804 C36.9648904,85.6465324 36.0878178,86.0195537 35.612707,86.358868 C35.1375962,86.6981823 34.684771,87.2749465 34.2542314,88.0891606 C34.9247369,89.0838384 35.465658,89.7573005 35.8769948,90.1095471 C36.2883316,90.4617937 36.8769586,90.7556155 37.6428759,90.9910126 C38.5651232,91.4008882 39.4349561,91.6404649 40.2523746,91.7097425 C41.069793,91.7790202 42.2879706,91.7164062 43.9069072,91.5219004 C45.7460238,90.9976895 46.9889688,90.5083415 47.6357422,90.0538564 C48.2825156,89.5993713 48.9014733,88.7803676 49.4926152,87.5968455 C49.2531855,87.0999296 48.979448,86.7135942 48.6714027,86.4378393 C48.3633574,86.1620844 47.7594126,85.7627393 46.8595684,85.239804 C44.6520391,85.18107 43.0634929,85.1517031 42.0939298,85.1517031 Z M64.9060702,85.1517031 C63.9365071,85.1517031 62.3479609,85.18107 60.1404316,85.239804 C59.2405874,85.7627393 58.6366426,86.1620844 58.3285973,86.4378393 C58.020552,86.7135942 57.7468145,87.0999296 57.5073848,87.5968455 C58.0985267,88.7803676 58.7174844,89.5993713 59.3642578,90.0538564 C60.0110312,90.5083415 61.2539762,90.9976895 63.0930928,91.5219004 C64.7120294,91.7164062 65.930207,91.7790202 66.7476254,91.7097425 C67.5650439,91.6404649 68.4348768,91.4008882 69.3571241,90.9910126 C70.1230414,90.7556155 70.7116684,90.4617937 71.1230052,90.1095471 C71.534342,89.7573005 72.0752631,89.0838384 72.7457686,88.0891606 C72.315229,87.2749465 71.8624038,86.6981823 71.387293,86.358868 C70.9121822,86.0195537 70.0351096,85.6465324 68.7560752,85.239804 C67.1589683,85.18107 65.8756334,85.1517031 64.9060702,85.1517031 Z" id="Combined-Shape" fill="#E8F7FA"></path>
        </g>
        <g id="Group-3-Copy-11" transform="translate(65.000000, 8.000000)" fill="#E8F7FA">
            <polygon id="Polygon-Copy-47" points="15 0 30 21 15 42 0 21"></polygon>
        </g>
    </g>
</svg>
